X:1
T:Vierzehn deutsche Volkslieder
T:Bei nächtlicher Weil
T:Johannes Brahms
T:Bei nächtlicher Weil
T:Nr. 3 aus Vierzehn deutsche Volkslieder, WoO 34
T:CPDL - Creative Commons Attribution Non Commercial 3.0
T:CPDL - Creative Commons Attribution Non Commercial 3.0
C:Johannes Brahms
Z:CPDL - Creative Commons Attribution Non Commercial 3.0
%%score [ ( 1 2 ) ( 3 4 ) ( 5 6 ) ]
L:1/8
Q:1/4=88
M:3/8
K:Ab
V:1 treble nm="Sopran\nAlt"
V:2 treble 
V:3 treble-8 nm="Tenor"
V:4 treble-8 
V:5 bass nm="Bass"
V:6 bass 
V:1
"^In sanfter Bewegung, nicht zu langsam"!p!"^mezza""^voce" e | e>dc | (fe)e | edc | B2 e/e/ | %5
w: 1.~Bei|nächt- li- cher|Weil, an ein's|Wal- * des|Born, tät ein|
w: 2.~Die|du dich in|Träu- men ge-|zei- * get|mir, trau- te|
 e>dc | fed | c>dc | B2!pp! (B/B/) | (Bc)d |!<(! (dc)e!<)! |!>(! (e>d)c!>)! | B2 (e/e/) | %13
w: 1.~Jä- ger gar|trau- rig- lich|ste- * *|hen, an der|Hüf- te hängt|1.~stumm _ sein|gül- de- nes|Horn, wild im|
w: 2.~Ni- xe, schaff|Ruh mei- ner|See- * *|len, du _|mei- * nes|2.~Le- bens al-|lei- ni- ge|Zier, was _|
!<(! ecA!<)! |!>(! fdB!>)! | (c2 B) |1 A2!pp!!<(! c!<)! |[Q:1/4=120]"^rit."!>(! (e2 d)!>)! | %18
w: Win- de die|Haa- re ihm|1.~we- *|hen, ja|we- *|
w: willst du mich|e- wig- lich|2.~quä- *|len, ja|quä- *|
 !fermata!c2 :|2 A2!pp!!<(! c!<)! |[Q:1/4=120]"^rit."!>(! (e2 d)!>)! | !fermata!c2 |] %22
w: hen.||||
w: len?||||
V:2
 c | c>BA | (dc)c | cBA | G2 B/B/ | c>BA | dcB | A>BA | G2 (G/G/) | (GA)B | (BA)c | (c>B)A | %12
 G2 (B/B/) | cAA | AFF | E3 |1 E2 E | G3 | A2 :|2 E2 E | G3 | A2 |] %22
V:3
"^sempre"!pp! e | e>dc | (fe)e | edc | B2 e/e/ | e>dc | fed | c>dc | B2!pp! (B/B/) | (Bc)d | %10
w: ()~3.~So|klagt er, und|rau- * schend|tönt's _ her-|vor aus des|3.~Quel- les tief-|un- ters- ten|Grün- * *|den, wie ein|Men- schen- laut|
w: 4.~Da|stür- zet der|Jä- ger sich|stracks _ hin-|ein in die|4.~Tie- fe, bald|ist er ver-|schwun- * *|den, dort _|un- ten em-|
 (dc)e | (e>d)c | B2 (e/e/) | ecA | fdB | (c2 d) |1 c2!pp! e | e3 | !fermata!e2 :|2!pp! c2 e | e3 | %21
w: 3.~zu _ des|Jä- * gers|Ohr: Komm her-|ein, so tust|Ru- he du|3.~fin- *|den, ja|fin-|den.|||
w: 4.~pfaht ihn das|Lieb- * chen|fein, sei- ne|Ruh hat er|end- lich ge-|4.~fun- *||||den, ja|fun-|
 !fermata!e2 |] %22
w: |
w: den.|
V:4
 c | c>BA | (dc)c | cBA | G2 B/B/ | c>BA | dcB | A>BA | G2 (G/G/) | (GA)B | (BA)c | (c>B)A | %12
 G2 (B/B/) | cAA | AFF | E3 |1 E2 c | (c2 B) | A2 :|2 E2 c | (c2 B) | A2 |] %22
V:5
!p!"^voce""^mezza" A, | A,E,E, | (D,A,)A, | A,2 E, | E,2 G,/G,/ | A,E,E, | D,A,A, | (A,2 E,) | %8
 E,2!pp! (E,/E,/) | (E,E,)E, | (E,E,)E, | (E,>E,)E, | E,2 (G,/G,/) | A,E,E, | D,A,A, | (A,2 G,) |1 %16
 A,2!pp! A, | (G,2 E,) | !fermata!E,2 :|2!pp! A,2 A, | (G,2 E,) | !fermata!E,2 |] %22
V:6
 A,, | A,,A,,A,, | (A,,A,,)A,, | A,,2 C, | E,2 E,/E,/ | A,,A,,A,, | A,,A,,A,, | (A,,2 C,) | x3 | %9
 x3 | x3 | x3 | E,2 (E,/E,/) | A,,A,,C, | D,D,D, | E,3 |1 A,,2 A, | E,3 | A,,2 :|2 A,,2 A, | %20
 (C,2 E,) | A,,2 |] %22

